packages/foundations/assets/icons/functional/images/maps/location_arrow_north_20_filled.svg

<svg width="20" height="20" viewBox="0 0 20 20" fill="none" xmlns="http://www.w3.org/2000/svg">
<g clip-path="url(#clip0_2213_4847)">
<path fill-rule="evenodd" clip-rule="evenodd" d="M10.0003 6.96904C10.5066 6.97078 10.7368 7.32137 10.8361 7.57961L14.4484 16.981C14.6012 17.3783 14.403 17.8242 14.0057 17.977C13.7214 18.0864 13.3994 18.018 13.184 17.8026L10.0003 14.6186L6.81574 17.8032C6.51475 18.1042 6.02675 18.1042 5.72576 17.8032C5.5104 17.5878 5.44206 17.2658 5.55138 16.9815L9.17061 7.57947C9.26987 7.32137 9.46166 6.96725 10.0003 6.96904ZM10 1.97109C10.5128 1.97109 10.9355 2.35713 10.9933 2.85447L11 2.97109V4.67298C11 5.22527 10.5523 5.67298 10 5.67298C9.48716 5.67298 9.06449 5.28694 9.00673 4.7896L9 4.67298V2.97109C9 2.41881 9.44772 1.97109 10 1.97109Z" fill="#1A1C1F"/>
</g>
<defs>
<clipPath id="clip0_2213_4847">
<rect width="20" height="20" fill="white"/>
</clipPath>
</defs>
</svg>

<svg xmlns="http://www.w3.org/2000/svg" width="20" height="20" fill="none"><g clip-path="url(#a)"><path fill="#1A1C1F" fill-rule="evenodd" d="M10 6.969c.507.002.737.352.836.61l3.612 9.402a.77.77 0 0 1-1.264.822L10 14.619l-3.184 3.184a.77.77 0 0 1-1.265-.822l3.62-9.402c.099-.258.29-.612.83-.61m0-4.998a1 1 0 0 1 .993.883l.007.117v1.702a1 1 0 0 1-1.993.117L9 4.673V2.971a1 1 0 0 1 1-1" clip-rule="evenodd"/></g><defs><clipPath id="a"><path fill="#fff" d="M0 0h20v20H0z"/></clipPath></defs></svg>
